svg/icon/cob.svg

<svg xmlns="http://www.w3.org/2000/svg" xmlns:xlink="http://www.w3.org/1999/xlink" width="32" height="32" viewBox="0 0 32 32"><defs><linearGradient id="cob-c" x1="50%" x2="50%" y1="0%" y2="100%"><stop offset="0%" stop-color="#FFF" stop-opacity=".5"/><stop offset="100%" stop-opacity=".5"/></linearGradient><circle id="cob-b" cx="16" cy="15" r="15"/><filter id="cob-a" width="111.7%" height="111.7%" x="-5.8%" y="-4.2%" filterUnits="objectBoundingBox"><feOffset dy=".5" in="SourceAlpha" result="shadowOffsetOuter1"/><feGaussianBlur in="shadowOffsetOuter1" result="shadowBlurOuter1" stdDeviation=".5"/><feComposite in="shadowBlurOuter1" in2="SourceAlpha" operator="out" result="shadowBlurOuter1"/><feColorMatrix in="shadowBlurOuter1" values="0 0 0 0 0 0 0 0 0 0 0 0 0 0 0 0 0 0 0.199473505 0"/></filter><path id="cob-e" d="M15.999888,23.9991995 L16,24 L11.4636678,24 L13.7359862,20.0429291 L13.7367902,20.0437296 L13.7363322,20.0429291 L18.2643599,20.0429291 L20.5363322,24 L16,24 L16.000173,23.9996976 L15.999888,23.9991995 Z M13.7366194,9.95622018 L13.7359862,9.9567222 L11.4636678,6 L16,6 L16,6.00060473 L16.000173,6.00030236 L16,6 L20.5363322,6 L18.2641872,9.95642039 L13.7363322,9.9567222 L13.7366194,9.95622018 Z M23.7355608,19.4947261 L23.7356401,19.4954669 L23.7344482,19.4954669 L23.7356401,19.4958156 L21.4633218,23.4525378 L19.199308,19.4958156 L19.2004998,19.4954669 L19.199308,19.4954669 L21.4633218,15.538396 L21.4639318,15.5388558 L21.4636678,15.538396 L26,15.538396 L23.7359862,19.4954669 L23.7355608,19.4947261 Z M8.26384115,10.4961174 L8.26366782,10.4958156 L10.5359862,6.53874467 L12.8,10.4958156 L10.5361589,14.452236 L10.5363322,14.4525378 L6,14.4525378 L8.26384115,10.4961174 Z M12.799178,19.4958156 L12.8,19.4958156 L10.5359862,23.4525378 L8.26366782,19.4958156 L8.26448981,19.4958156 L8.26366782,19.4954669 L6,15.538396 L10.5363322,15.538396 L12.8,19.4954669 L12.799178,19.4958156 Z M23.7356402,10.4964179 L23.7359862,10.4958156 L26,14.4525378 L21.4636678,14.4525378 L21.4638591,14.4522047 L21.4633218,14.4525378 L19.199308,10.4958156 L21.4633218,6.53874467 L23.7356401,10.4958156 L23.7356402,10.4964179 Z"/><filter id="cob-d" width="117.5%" height="119.4%" x="-8.8%" y="-6.9%" filterUnits="objectBoundingBox"><feOffset dy=".5" in="SourceAlpha" result="shadowOffsetOuter1"/><feGaussianBlur in="shadowOffsetOuter1" result="shadowBlurOuter1" stdDeviation=".5"/><feColorMatrix in="shadowBlurOuter1" values="0 0 0 0 0 0 0 0 0 0 0 0 0 0 0 0 0 0 0.204257246 0"/></filter></defs><g fill="none" fill-rule="evenodd"><use fill="#000" filter="url(#cob-a)" xlink:href="#cob-b"/><use fill="#13BF99" xlink:href="#cob-b"/><use fill="url(#cob-c)" style="mix-blend-mode:soft-light" xlink:href="#cob-b"/><circle cx="16" cy="15" r="14.5" stroke="#000" stroke-opacity=".097"/><g fill-rule="nonzero"><use fill="#000" filter="url(#cob-d)" xlink:href="#cob-e"/><use fill="#FFF" fill-rule="evenodd" xlink:href="#cob-e"/></g></g></svg>

<svg xmlns="http://www.w3.org/2000/svg" xmlns:xlink="http://www.w3.org/1999/xlink" width="32" height="32" viewBox="0 0 32 32"><defs><linearGradient id="c" x1="50%" x2="50%" y1="0%" y2="100%"><stop offset="0%" stop-color="#FFF" stop-opacity=".5"/><stop offset="100%" stop-opacity=".5"/></linearGradient><circle id="b" cx="16" cy="15" r="15"/><filter id="a" width="111.7%" height="111.7%" x="-5.8%" y="-4.2%" filterUnits="objectBoundingBox"><feOffset dy=".5" in="SourceAlpha" result="shadowOffsetOuter1"/><feGaussianBlur in="shadowOffsetOuter1" result="shadowBlurOuter1" stdDeviation=".5"/><feComposite in="shadowBlurOuter1" in2="SourceAlpha" operator="out" result="shadowBlurOuter1"/><feColorMatrix in="shadowBlurOuter1" values="0 0 0 0 0 0 0 0 0 0 0 0 0 0 0 0 0 0 0.199473505 0"/></filter><path id="e" d="M16 24h-4.536l2.272-3.957h4.528L20.536 24H16zM13.737 9.955h-.001L11.464 6h9.072l-2.272 3.956h-4.528zm9.999 9.539h-.002.002l-2.273 3.958-2.264-3.957h.001l2.263-3.958H26l-2.264 3.957zM8.264 10.496l2.272-3.957 2.264 3.957-2.264 3.956H6l2.264-3.956zm4.535 9h.001l-2.264 3.957-2.272-3.957L6 15.537h4.536l2.264 3.957zm10.937-9L26 14.453h-4.536l-2.265-3.957 2.264-3.957 2.273 3.957z"/><filter id="d" width="117.5%" height="119.4%" x="-8.8%" y="-6.9%" filterUnits="objectBoundingBox"><feOffset dy=".5" in="SourceAlpha" result="shadowOffsetOuter1"/><feGaussianBlur in="shadowOffsetOuter1" result="shadowBlurOuter1" stdDeviation=".5"/><feColorMatrix in="shadowBlurOuter1" values="0 0 0 0 0 0 0 0 0 0 0 0 0 0 0 0 0 0 0.204257246 0"/></filter></defs><g fill="none" fill-rule="evenodd"><use fill="#000" filter="url(#a)" xlink:href="#b"/><use fill="#13BF99" xlink:href="#b"/><use fill="url(#c)" style="mix-blend-mode:soft-light" xlink:href="#b"/><circle cx="16" cy="15" r="14.5" stroke="#000" stroke-opacity=".097"/><g fill-rule="nonzero"><use fill="#000" filter="url(#d)" xlink:href="#e"/><use fill="#FFF" fill-rule="evenodd" xlink:href="#e"/></g></g></svg>
